X:1
T:The Railroad Corral
M:3/4
L:1/4
K:F
 A| A F D| C A, C| D F F| A2 A| A F D| C A, C| D F G| F2 F| F A c|\
 c A c| d c A| c2 F/2G/2| A F D| C A, C| D F G| F2||

